X:1
T:O Luci di Giesu
T:O Luci di Giesu
T:Tomaso Cecchino
T:Source : Canti Spirituali a uno, due et tre voci + BC---Venetia---G.Vincenti---1613. Editor : André Vierendeels (25/10/16).   
T:Notes : Original Clefs : C4, F4 Canto o Tenore Figures in BC are notated in original print 
T:©
T:©
C:Tomaso Cecchino
Z:©
%%score 1 2
L:1/8
Q:1/4=120
M:4/4
K:F
V:1 treble nm="Soprano" snm="S"
V:2 bass nm="MusicXML Part"
V:1
 c8 | d4- dAAB | ^F4 G4- | G2 D2 _E4 | D4 C4 | z2 cB A2 GF | G4 F4 :: z4 A4- | A4 F4 | E4 F2 G2 | %10
w: O|Lu- * ci di Gie-|su, san-|* te'et a-|ma- re,|Be- a- tri ce be-|a- te,|Deh|_ las-|so co- me|
 AGAF G2 c2 | =B3 B B2 d2 | de/f/ e2 ^c4 | z4 d4 | AAA=B c2 c2 | z2 ^cc d4 | e4 z2 e2 | %17
w: sie- * * * * to'e|tur- di- di'e lan-|guen- * * * ti,|e|com' in un sol sguar- do|m'e- spri- men-|te, ch'af-|
 ^c3 c d2 A2 | B4 z2 d2- | d2 c4 =B2 | =B4 A4 | z2 AG F2 ED | E4 z2 AB | c2 BA B4 | FGAB c2 G2 | %25
w: fet- ti de'i mar-|tir e|_ del do-|lo- re,|e le fiam- ma d'a-|mor, e le|fiam- me d'a- mor|ch'ar- * * * * don,|
 CDEF G>F G/A/B/c/ | d2 cB c4- | c2 EF G4 | F8 |] %29
w: ch'ar- * * * * * * * * *||* don nel co-|re.|
V:2
"^BC" F,4 E,4 |"^#" D,8- | D,4 G,,4- |"^-natural" G,,8 | G,,4 C,4 | C,4 F,4 | C,4 F,,4 :: %7
 F,,6 G,,2 |"^#" A,,8 | A,,4 D,2 C,2 | F,,4 C,4 | G,,3 G,, G,,2 G,,2 | A,,8 | D,8 |"^#" D,4 C,4 | %15
 A,,4 B,,4 |"^#" A,,4 A,,4 |"^#" A,,4 D,4 | G,,4 G,,4 | A,,4 E,4- | E,4 A,,4 | F,,4 B,,4 | %22
"^#" A,,4 F,,4 | F,,4 G,,4 | D,4 C,4 | C,4 G,,4 | B,,4 A,,3 B,, | C,8 | F,,8 |] %29

